Origami/24x24/apps/bomber.svg

<svg width="24" height="24" version="1" xmlns="http://www.w3.org/2000/svg">
 <path d="M 5.1406475,5.5 C 4.6266148,5.687533 6.2371315,9.2824045 5.814548,9.5189965 5,10.5 5,10.5 5,10.5 v 4 c 0,0 2.856714,1.20844 5.312417,1.5 0.492277,0.05865 -8.2913284,4.5 -8.2913284,4.5 C 4.495572,20.500624 29.653444,14.213964 19.667537,9.510823 17.952182,8.59771 15.434148,8 12.6278,8 11.217731,8 9.921903,8.1663725 8.7733835,8.426998 8.2207615,8.5524005 5.621256,5.3246773 5.1407095,5.5 Z" style="opacity:.2"/>
 <path d="m5.1406475 5c-0.5140327 0.187533 1.096484 3.7824045 0.6739005 4.0189965l-0.814548 0.9810035v4s2.856714 1.20844 5.312417 1.5c0.492277 0.058649-8.2913284 4.5-8.2913284 4.5 2.4744834 6.24e-4 27.632355-6.786447 17.646448-11.489588-1.715355-0.913113-4.233389-1.510823-7.039737-1.510823-1.410069 0-2.705897 0.1663725-3.8544165 0.426998-0.552622 0.1254025-3.1521275-2.6019092-3.632674-2.4265865z" style="fill:#28aeae"/>
 <path d="m5 10.5v-1h-2.9999999v6h2.9999999v-1c4.290718-0.674162 6.050415-1.185768 6-2.028874-0.049245-0.823523-1.80894-1.311963-6-1.971126z" style="opacity:.2"/>
 <path d="m5 10v-1h-2.9999999v6h2.9999999v-1c4.290718-0.674162 6.050415-1.185768 6-2.028874-0.049245-0.823523-1.80894-1.311963-6-1.971126z" style="fill:#3f3f3f"/>
 <path d="m17.019531 8.0293589c-0.0091 0.078559-0.01916 0.1607878-0.01953 0.2226562 0.0011 1.5821598 2.034877 3.9227829 4.679688 4.2089849 0.127377-0.215126 0.231235-0.430218 0.279296-0.644532 0.01166-0.184934 0.02124-0.378331 0.02344-0.447265-0.0012-0.03276-0.0021-0.06293-2e-3 -0.0918-0.092765-0.783056-0.788924-1.5500256-2.312456-2.2675754-0.743441-0.3957465-1.645323-0.7261946-2.648438-0.9804687z" style="opacity:.2"/>
 <path d="m17.019531 7.5292969c-0.009086 0.0785587-0.019156 0.1607878-0.019531 0.2226562 0.001073 1.5821598 2.034877 3.9227829 4.679688 4.2089849 0.127377-0.215126 0.231235-0.430218 0.279296-0.644532 0.011663-0.184934 0.021242-0.378331 0.023438-0.447265-0.001223-0.032764-0.002071-0.062929-0.001953-0.091797-0.092809-0.7830594-0.788968-1.5500286-2.3125-2.2675784-0.743441-0.3957465-1.645323-0.7261946-2.648438-0.9804687z" style="fill:#3f3f3f"/>
 <path d="m2 9v0.5h3v-0.5h-3zm3 1v0.5c3.8386744 0.60374 5.620375 1.067491 5.933594 1.773438 0.051672-0.095994 0.072708-0.197347 0.066406-0.302735-0.049245-0.823523-1.80894-1.31154-6-1.970703z" style="fill:#ffffff;opacity:.1"/>
 <path d="M 5.140625 5 C 5.0272229 5.0413722 5.0274121 5.266008 5.0761719 5.5664062 C 5.0923498 5.5358684 5.1119242 5.5104708 5.140625 5.5 C 5.6211715 5.3246773 8.2208155 8.0511837 8.7734375 7.9257812 C 9.921957 7.6651557 11.216884 7.5 12.626953 7.5 C 15.433301 7.5 17.952614 8.0966526 19.667969 9.0097656 C 21.153537 9.7094355 21.846404 10.456048 21.966797 11.21875 C 22.120809 10.282632 21.477124 9.3618376 19.667969 8.5097656 C 17.952614 7.5966526 15.433301 7 12.626953 7 C 11.216884 7 9.921957 7.1651557 8.7734375 7.4257812 C 8.2208155 7.5511837 5.6211715 4.8246773 5.140625 5 z M 5.8398438 8.9824219 C 5.8310691 8.9942779 5.8263662 9.0128615 5.8144531 9.0195312 L 5 10 L 5 10.5 L 5.8144531 9.5195312 C 5.9015338 9.4707774 5.8890481 9.2571841 5.8398438 8.9824219 z M 9.7578125 15.912109 C 7.9526036 16.998455 2.0214844 20 2.0214844 20 C 2.262704 20.000061 2.7679523 19.917601 3.3867188 19.796875 C 5.341644 18.801944 10.72716 16.049403 10.3125 16 C 10.130136 15.978348 9.9432655 15.943003 9.7578125 15.912109 z" style="fill:#ffffff;opacity:.1"/>
</svg>

<svg xmlns="http://www.w3.org/2000/svg" width="24" height="24" version="1">
 <path style="opacity:0.2" d="M 5.1406475,5.5 C 4.6266148,5.687533 6.2371315,9.2824045 5.814548,9.5189965 5,10.5 5,10.5 5,10.5 v 4 c 0,0 2.856714,1.20844 5.312417,1.5 0.492277,0.05865 -8.2913284,4.5 -8.2913284,4.5 C 4.495572,20.500624 29.653444,14.213964 19.667537,9.510823 17.952182,8.59771 15.434148,8 12.6278,8 11.217731,8 9.921903,8.1663725 8.7733835,8.426998 8.2207615,8.5524005 5.621256,5.3246773 5.1407095,5.5 Z"/>
 <path style="fill:#28aeae" d="M 5.1406475,5 C 4.6266148,5.187533 6.2371315,8.7824045 5.814548,9.0189965 L 5,10 v 4 c 0,0 2.856714,1.20844 5.312417,1.5 C 10.804694,15.558649 2.0210886,20 2.0210886,20 4.495572,20.000624 29.653444,13.213553 19.667537,8.5104115 17.952182,7.5972985 15.434148,6.9995885 12.6278,6.9995885 c -1.410069,0 -2.705897,0.1663725 -3.8544165,0.426998 C 8.2207615,7.551989 5.621256,4.8246773 5.1407095,5 Z"/>
 <path style="opacity:0.2" d="m 5,10.5 v -1 H 2.0000001 v 6 H 5 v -1 C 9.290718,13.825838 11.050415,13.314232 11,12.471126 10.950755,11.647603 9.19106,11.159163 5,10.5 Z"/>
 <path style="fill:#3f3f3f" d="M 5,10 V 9 H 2.0000001 v 6 H 5 V 14 C 9.290718,13.325838 11.050415,12.814232 11,11.971126 10.950755,11.147603 9.19106,10.659163 5,10 Z"/>
 <path style="opacity:0.2" d="m 17.019531,8.0293589 c -0.0091,0.078559 -0.01916,0.1607878 -0.01953,0.2226562 0.0011,1.5821598 2.034877,3.9227829 4.679688,4.2089849 0.127377,-0.215126 0.231235,-0.430218 0.279296,-0.644532 0.01166,-0.184934 0.02124,-0.378331 0.02344,-0.447265 -0.0012,-0.03276 -0.0021,-0.06293 -0.002,-0.0918 C 21.88766,10.494347 21.191501,9.7273774 19.667969,9.0098276 18.924528,8.6140811 18.022646,8.283633 17.019531,8.0293589 Z"/>
 <path style="fill:#3f3f3f" d="M 17.019531 7.5292969 C 17.010445 7.6078556 17.000375 7.6900847 17 7.7519531 C 17.001073 9.3341129 19.034877 11.674736 21.679688 11.960938 C 21.807065 11.745812 21.910923 11.53072 21.958984 11.316406 C 21.970647 11.131472 21.980226 10.938075 21.982422 10.869141 C 21.981199 10.836377 21.980351 10.806212 21.980469 10.777344 C 21.88766 9.9942846 21.191501 9.2273154 19.667969 8.5097656 C 18.924528 8.1140191 18.022646 7.783571 17.019531 7.5292969 z"/>
 <path style="fill:#ffffff;opacity:0.1" d="M 2 9 L 2 9.5 L 5 9.5 L 5 9 L 2 9 z M 5 10 L 5 10.5 C 8.8386744 11.10374 10.620375 11.567491 10.933594 12.273438 C 10.985266 12.177444 11.006302 12.076091 11 11.970703 C 10.950755 11.14718 9.19106 10.659163 5 10 z"/>
 <path style="fill:#ffffff;opacity:0.1" d="M 5.140625 5 C 5.0272229 5.0413722 5.0274121 5.266008 5.0761719 5.5664062 C 5.0923498 5.5358684 5.1119242 5.5104708 5.140625 5.5 C 5.6211715 5.3246773 8.2208155 8.0511837 8.7734375 7.9257812 C 9.921957 7.6651557 11.216884 7.5 12.626953 7.5 C 15.433301 7.5 17.952614 8.0966526 19.667969 9.0097656 C 21.153537 9.7094355 21.846404 10.456048 21.966797 11.21875 C 22.120809 10.282632 21.477124 9.3618376 19.667969 8.5097656 C 17.952614 7.5966526 15.433301 7 12.626953 7 C 11.216884 7 9.921957 7.1651557 8.7734375 7.4257812 C 8.2208155 7.5511837 5.6211715 4.8246773 5.140625 5 z M 5.8398438 8.9824219 C 5.8310691 8.9942779 5.8263662 9.0128615 5.8144531 9.0195312 L 5 10 L 5 10.5 L 5.8144531 9.5195312 C 5.9015338 9.4707774 5.8890481 9.2571841 5.8398438 8.9824219 z M 9.7578125 15.912109 C 7.9526036 16.998455 2.0214844 20 2.0214844 20 C 2.262704 20.000061 2.7679523 19.917601 3.3867188 19.796875 C 5.341644 18.801944 10.72716 16.049403 10.3125 16 C 10.130136 15.978348 9.9432655 15.943003 9.7578125 15.912109 z"/>
</svg>
